X:1
T:The Dodger Song
M:4/4
L:1/8
K:E
 z4 z2 EF| G3/2 G/2 G3/2 G/2 F E2 F| G2 G2 F E2 E| G3/2 G/2 G3/2 G/2 F E2 E|\
 B,3/2 B,/2 C3/2 D/2 E2 B2| G2 GG B2 BB| GG GG B2 B2| F2 F2 F2 EF|\
 GG GG E3 E| G3 GF E- E2| GG GG G E2 E| G3 GF EE E| G2 FF E2 z2|
